!!!!SEGMENT: pl-kk--kk-i-389--004-008_anonim--missa-no-4-dona.krn
!!!cenid: 17xx:2483
!!!COM: Anonim
!!!COM-rismID: pe30004985
!!!CDT:
!!!CNT:
!!!OPR: [Missa] No. 4.
!!!OTL: Dona
!!!OMV: 008
!!!PDT:
!!!AGN: Sacred; Mass
!!!YEC: Copyright 2022 Narodowy Instytut Fryderyka Chopina (https://polishscores.org)
!!!YEM: License CC-BY-4.0 (https://creativecommons.org/licenses/by/4.0)
!!!SMS-siglum: PL-Kk
!!!SMS-shelfmark: Kk.I.389
!!!SMS-variant:
!!!SMS-altvar:
!!!SMS-shelfwork: 004-008 M
!!!NIFC-rismSourceID: 1001146182
!!!NIFC-rismChildID: 1001146623
!!!NIFC-islandoraID: pl-kk:6976
!!!URL-pdf-islandora: https://repozytorium.nifc.pl/islandora/object/pl-kk%3A6976/datastream/PDF/view
!!!URL-scan: https://polish.musicsources.pl/pl/lokalizacje/galeria/rekopisy/5999/1 @EN{Scan on Polish Music Sources Website} @PL{Skany w portalu Dziedzictwo Muzyki Polskiej w otwartym dostępie}
!!!IIIF:
!!!ONB-nifc: UWAGA: S – skan 8-9, A – 27-28 , T –46-47 , B – 65-66 . Części Mszy: Rorate, Kyrie, Gloria, Graduale, Sanctus, Benedictus, Agnus, Dona
!!!AIN: 1 alto 1 bass 1 soprn 1 tenor
!!!key: F
**kern	**text	**kern	**text	**kern	**text	**kern	**text
*part4	*part4	*part3	*part3	*part2	*part2	*part1	*part1
*staff4	*staff4	*staff3	*staff3	*staff2	*staff2	*staff1	*staff1
*I"Basso.	*	*I"Tenore.	*	*I"Alto.	*	*I"Soprano.	*
*I'[B]	*	*I'[T]	*	*I'[A]	*	*I'[S]	*
*ICvox	*	*ICvox	*	*ICvox	*	*ICvox	*
*Ibass	*	*Itenor	*	*Ialto	*	*Isoprn	*
*clefF4	*	*clefC4	*	*clefC3	*	*clefC1	*
*k[b-]	*	*k[b-]	*	*k[b-]	*	*k[b-]	*
*F:	*	*F:	*	*F:	*	*F:	*
*M2/2	*	*M2/2	*	*M2/2	*	*M2/2	*
*met(C.|)	*	*met(C.|)	*	*met(C.|)	*	*met(C.|)	*
=1	=1	=1	=1	=1	=1	=1	=1
!LO:TX:t=P:problem:melodia przepisana z Kyrie. \nTekst dodany przeze mnie na podstawie partii tenora. \nUstalone z p. Emilią Ziętek.	!	!	!	!LO:TX:t=P:problem:melodia przepisana z Kyrie. \nTekst dodany przeze mnie na podstawie partii tenora. \nUstalone z p. Emilią Ziętek.	!	!LO:TX:t=P:problem:melodia przepisana z Kyrie. \nTekst dodany przeze mnie na podstawie partii tenora. \nUstalone z p. Emilią Ziętek.	!
4F\yy	Do-	4A\	Do-	2.c\yy	Do-	2.a\yy	Do-
4G\yy	.	4B-y\	.	.	.	.	.
4A\yy	.	4c\	.	.	.	.	.
4F\yy	-na	4A\	-na	4c\yy	-na	4a\yy	-na
=2	=2	=2	=2	=2	=2	=2	=2
!	!	!LO:TX:t=P:problem:all\right	!	!	!	!	!
*	*	*2\right	*	*	*	*	*
4B-X\yy	no-	2c\	no-	2.d\yy	no-	2.b-X\yy	no-
4A\yy	.	.	.	.	.	.	.
4G\yy	-bis	2c\	-bis	.	.	.	.
4F\yy	.	.	.	4d\yy	-bis	4b-\yy	-bis
=3	=3	=3	=3	=3	=3	=3	=3
4E\yy	pa-	1c	pa-	1eyy	pa-	1gyy	pa-
4D\yy	.	.	.	.	.	.	.
4E\yy	.	.	.	.	.	.	.
4C/yy	.	.	.	.	.	.	.
=4	=4	=4	=4	=4	=4	=4	=4
2F\yy	-cem	2c\	-cem	1fyy	-cem	1ayy	-cem
2ryy	.	2r	.	.	.	.	.
=5	=5	=5	=5	=5	=5	=5	=5
4F\yy	Do-	2.c\	Do-	2.a\yy	Do-	2.ff\yy	Do-
4E\yy	.	.	.	.	.	.	.
4F\yy	.	.	.	.	.	.	.
4D\yy	-na	4B\	-na	4a\yy	-na	4ee\yy	-na
=6	=6	=6	=6	=6	=6	=6	=6
4E\yy	no-	2c\	no-	2.g\yy	no-	2.ee\yy	no-
4D\yy	.	.	.	.	.	.	.
4E\yy	-bis	2c\	-bis	.	.	.	.
4C/yy	.	.	.	4g\yy	-bis	4ee\yy	-bis
=7	=7	=7	=7	=7	=7	=7	=7
4F\yy	pa-	1B	pa-	1fyy	pa-	1ddyy	pa-
4D\yy	.	.	.	.	.	.	.
2G\yy	.	.	.	.	.	.	.
=8	=8	=8	=8	=8	=8	=8	=8
2C/yy	-cem,	2G/	-cem,	2e\yy	-cem,	2cc\yy	-cem,
2ryy	.	2r	.	2ryy	.	2ryy	.
=9	=9	=9	=9	=9	=9	=9	=9
2C/yy	Do-	(2c\	Do-	(2g\yy	Do-	(2ee\yy	Do-
2c\yy	.	2c\)	.	2g\)yy	.	2ee\)yy	.
!	!	!LO:LB:g=original	!	!	!	!	!
=10	=10	=10	=10	=10	=10	=10	=10
2c\yy	-na	2c\	-na	8g\Lyy	-na	8ee\Lyy	-na
.	.	.	.	8f\yy	.	8dd\yy	.
.	.	.	.	8e\yy	.	8cc\yy	.
.	.	.	.	8f\Jyy	.	8dd\Jyy	.
2ryy	.	2r	.	2g\yy	.	2ee\yy	.
=11	=11	=11	=11	=11	=11	=11	=11
2C/yy	no-	1c	no-	2g\yy	no-	2ee\yy	no-
2B-X\yy	.	.	.	2g\yy	-bis	2ee\yy	-bis
=12	=12	=12	=12	=12	=12	=12	=12
2B-X\yy	-bis	2c\	-bis	8g\Lyy	pa-	8ee\Lyy	pa-
.	.	.	.	8f\yy	.	8dd\yy	.
.	.	.	.	8e\yy	.	8cc\yy	.
.	.	.	.	8f\Jyy	.	8dd\Jyy	.
2ryy	.	2r	.	2g\yy	-cem	2ee\yy	-cem
=13	=13	=13	=13	=13	=13	=13	=13
4A\yy	do-	4A\	do-	4f\yy	Do-	4cc\yy	Do-
4G\yy	.	4B-y\	.	4g\yy	.	4b-X\yy	.
4F\yy	-na	2c\	-na	4a\yy	-na	4a\yy	-na
4E\yy	.	.	.	4b-X\yy	.	4g\yy	.
=14	=14	=14	=14	=14	=14	=14	=14
4F\yy	no-	4f\	no-	4a\yy	no-	4cc\yy	no-
4G\yy	.	4c\	.	4g\yy	.	4b-X\yy	.
4A\yy	.	4c\	.	4f\yy	.	4a\yy	.
4F\yy	-bis	4A\	-bis	4a\yy	-bis	4cc\yy	-bis
=15	=15	=15	=15	=15	=15	=15	=15
4B-X\yy	pa-	2B-X\	pa-	4g\yy	pa-	4dd\yy	pa-
4G\yy	.	.	.	4b-X\yy	.	4gg\yy	.
4c\yy	.	2c\	.	4a\yy	.	4ff\yy	.
4C/yy	.	.	.	4g\yy	.	4ee\yy	.
=16	=16	=16	=16	=16	=16	=16	=16
2F\yy	-cem	2c\	-cem	2a\yy	-cem	2ff\yy	-cem
2ryy	.	2r	.	2ryy	.	2ryy	.
=17	=17	=17	=17	=17	=17	=17	=17
2C/yy	Do-	1c	Do-	2g\yy	Do-	2ee\yy	Do-
2c\yy	.	.	.	2g\yy	-na	2ee\yy	-na
=18	=18	=18	=18	=18	=18	=18	=18
2c\yy	-na	2c\	-na	8g\Lyy	no-	8ee\Lyy	no-
.	.	.	.	8f\yy	.	8dd\yy	.
.	.	.	.	8e\yy	.	8cc\yy	.
.	.	.	.	8f\Jyy	.	8dd\Jyy	.
2ryy	.	2r	.	2g\yy	.	2ee\yy	.
=19	=19	=19	=19	=19	=19	=19	=19
!	!	!LO:TX:t=P:problem:wykreślony takt	!	!	!	!	!
2C/yy	no-	1c	no-	2g\yy	-bis	2ee\yy	-bis
2B-X\yy	.	.	.	2g\yy	pa-	2ee\yy	pa-
!	!	!LO:LB:g=original	!	!	!	!	!
=20	=20	=20	=20	=20	=20	=20	=20
2B-X\yy	-bis	2c\	-bis	8g\Lyy	.	8ee\Lyy	.
.	.	.	.	8f\yy	.	8dd\yy	.
.	.	.	.	8e\yy	.	8cc\yy	.
.	.	.	.	8f\Jyy	.	8dd\Jyy	.
2ryy	.	2r	.	2g\yy	-cem	2ee\yy	-cem
=21	=21	=21	=21	=21	=21	=21	=21
4A\yy	do-	4A\	do-	4f\yy	Do-	4cc\yy	do-
4G\yy	.	4B-y\	.	4g\yy	.	4b-X\yy	.
4F\yy	-na	2c\	-na	4a\yy	-na	4a\yy	-na
4E\yy	.	.	.	4b-X\yy	.	4g\yy	.
=22	=22	=22	=22	=22	=22	=22	=22
4F\yy	no-	4f\	no-	4a\yy	no-	4cc\yy	no-
4G\yy	.	4c\	.	4g\yy	.	4b-X\yy	.
4A\yy	.	4c\	.	4f\yy	.	4a\yy	.
4F\yy	-bis	4A\	-bis	4a\yy	-bis	4cc\yy	-bis
=23	=23	=23	=23	=23	=23	=23	=23
2B-X\yy	pa-	2B-y\	pa-	4g\yy	pa-	2dd\yy	pa-
.	.	.	.	4b-X\yy	.	.	.
4c\yy	.	2c\	.	4a\yy	.	2ee\yy	.
4C/yy	.	.	.	4g\yy	.	.	.
=24	=24	=24	=24	=24	=24	=24	=24
2F\yy	-cem	2c\	-cem	2a\yy	-cem	2ff\yy	-cem
2A\yy	do-	2A\	do-	2f\yy	do-	2cc\yy	do-
=25	=25	=25	=25	=25	=25	=25	=25
4B-X\yy	-na	1F	-na	1fyy	-na	4dd\yy	-na
4A\yy	.	.	.	.	.	4cc\yy	.
4G\yy	.	.	.	.	.	4b-X\yy	.
4F\yy	.	.	.	.	.	4a\yy	.
=26	=26	=26	=26	=26	=26	=26	=26
2E\yy	no-	2G/	no-	4g\yy	no-	2b-X\yy	no-
.	.	.	.	4e\yy	.	.	.
2F\yy	-bis	2A\	-bis	4a\yy	-bis	2cc\yy	-bis
.	.	.	.	4f\yy	.	.	.
=27	=27	=27	=27	=27	=27	=27	=27
2BB-X/yy	pa-	2d\	pa-	2g\yy	pa-	2b-X\yy	pa-
2C/yy	.	2c\	.	2e\yy	.	2g\yy	.
=28	=28	=28	=28	=28	=28	=28	=28
1FFyy	-cem.	1c	-cem.	1fyy	-cem.	2.a\yy	-cem.
.	.	.	.	.	.	4ryy	.
==	==	==	==	==	==	==	==
*-	*-	*-	*-	*-	*-	*-	*-
!!!system-decoration: [(s1,s2,s3,s4)]
!!!ENC: Andrzej Gręziak
!!!END: 2023-11-07
!!!EED: Jan Barakat
!!!EEV: 2023-11-30
